X:98
T:Fred Finn's
R:Reel
O:Ireland
S:Music from Ireland Vol. 3
B:Irish Traditional Music Session Tunes 1 p19 (?)
B:Music from Ireland Vol. 3
Z:Transcription, chords:Mike Long
M:C|
L:1/8
K:D
 "D"A3F "A"ABde | "D"fd"A"ec "D"d2cd | "Em"BE ~E2 "G"G3B |\
 "D"AF~F2 "A"dFAF | "D"A3F "A"ABde | "Bm"fdec "D"d2cd |
"G"BAGB "D"ABde | "A"faeg "D"fd~d2 :|\
 |: "D"fd ad bd ad | "D"dfaf "A"gfed | "Bm"fbba b2ba |
 "(G)"fbba "A"feeg | "D"fd ad bd ad | "D"dfaf "A"gfed |\
"G" BAGB "D"ABde | "A"faeg "D"fd~d2:|
